material/.icons/material/video-outline.svg

<svg xmlns="http://www.w3.org/2000/svg" viewBox="0 0 24 24"><path d="M15 8v8H5V8h10m1-2H4a1 1 0 00-1 1v10a1 1 0 001 1h12a1 1 0 001-1v-3.5l4 4v-11l-4 4V7a1 1 0 00-1-1z"/></svg>

<?xml version="1.0" encoding="UTF-8"?><!DOCTYPE svg PUBLIC "-//W3C//DTD SVG 1.1//EN" "http://www.w3.org/Graphics/SVG/1.1/DTD/svg11.dtd"><svg xmlns="http://www.w3.org/2000/svg" xmlns:xlink="http://www.w3.org/1999/xlink" version="1.1" id="mdi-video-outline" width="24" height="24" viewBox="0 0 24 24"><path d="M15,8V16H5V8H15M16,6H4A1,1 0 0,0 3,7V17A1,1 0 0,0 4,18H16A1,1 0 0,0 17,17V13.5L21,17.5V6.5L17,10.5V7A1,1 0 0,0 16,6Z" /></svg>
